!!! OTL: Berkowitz259
!!! Chapter: 1
!!! Section: II
!!! Page: 60
!!! Mode: 
!!! Encoder: DJB
**kern
*staff1
*I"Piano
=1-
*clefG2
*k[f#]
*G:
*M3/4
8c#/L
8d/J
4b\
8r
8f#/
=2
4a/
4g/
8d/L
8d-/J
=3
4c/
4a/
8r
8f#/
=4
4.g/
8r
4b\
=5
4cc\
4e/
4e-/
=6
4d/
4b\
4r
=7
4a/
4c/
4r
=8
8A#/L
8B/J
4g/
4r
=9
4.e/
8f#/
4g/
=10
!!linebreak:original
4b\
4d/
4a/
=11
[2.g/
=12
4g/]
2r
==
*-
